X:1
T:6 Lieder, Op.1
T:Gondellied
T:6 Lieder, Op.1
T:6. Gondellied
T:Fanny (Mendelssohn) Hensel
T:Emanuel von Geibel
T:OpenScore (CC0)
T:OpenScore (CC0)
T:OpenScore (CC0)
T:OpenScore (CC0)
C:Fanny (Mendelssohn) Hensel
Z:Emanuel von Geibel
Z:OpenScore (CC0)
%%score ( 1 2 ) { 3 | ( 4 5 ) }
L:1/8
Q:1/4=115
M:6/8
K:A
V:1 treble nm="Gesang\nVoice"
V:2 treble 
V:3 treble nm="Piano"
V:4 bass 
V:5 bass 
V:1
"^Allegretto" z6 | z6 |]SS E A B c3 | E A c e3 | e c ^A F2 E | D3 z2 z | F B c d2 c | %7
w: ||O komm zu *|wenn durch die Nacht|wan- delt das Ster- nen-|heer,|dann schwebt mit uns in|
w: ||Dies ist für *|Lieb' * die Stund,|Lieb- chen o komm, und|schau,|so fried- lich strahlt des|
!<(! B2 d!<)!!>(! f2 f!>)! | fe c AE c | B3 z2 z | z2 z z2 E | e2 =c A2 c | B2 G E2 z | %13
w: Mon- des- pracht, die|Gon- * del ü- * bers|Meer,|die|Luft ist weich wie|Lie- bes- scherz|
w: Him- mels Rund, es|schläft * des Mee- * res|Blau.|Und|wie es schläft, so|sagt der Blick,|
 =F E F A2 =G | (=F3 E2) E | e2 =c A2 c | B2 G E2 z | ^A B A e2 A |!<(! (B3!<)! ^B3) | %19
w: sanft spielt der gold- ne|Schein, * die|Ci- ther klingt und|zieht dein Herz|mit in die Lust hin-|ein, *|
w: was nie die Lip- pe|spricht, * das|Au- ge zieht sich|nicht zu- rück,|zu- rück die See- le|nicht, *|
!p! c E A c3 | E A"^cresc." c e3 |!f! e c ^A!>(! F2 E!>)! |!p! D3 z2 z | F B c d2 c | B2 d f2 F | %25
w: o komm zu mir|wenn durch die Nacht,|wan- delt das Ster- nen-|heer,|dann schwebt mit uns in|Mon- des- pracht, die|
w: o komm zu mir|wenn durch die Nacht,|||||
 E2 A cA c | e3 z2 e | a3 g3 | f3 e3 | ^d3- d2 f/e/ | ^d3 z2 d | =d3- de d | cA G FB A | %33
w: Gon- del ü- * bers|Meer, dann|schwebt mit|uns in|Mon- * des- *|pracht, mit|uns * * in|Mon- * des- pracht * die|
w: ||||||||
 G2 B df e | (d3 c2) A | d3 c3 | B3 z2 A | Gf e dB c | A3 z2 z | z6[Q:1/4=112]"^rit." | %40
w: Gon- del ü- * bers|Meer , dann|schwebt mit|uns, die|Gon- * del ü- * bers|Meer.||
w: |||||||
 z6[Q:1/4=108]"^rit."[Q:1/4=105]"^rit."[Q:1/4=100]"^rit."[Q:1/4=90]"^rit."[Q:1/4=80]"^rit." | z6 |] %42
w: ||
w: ||
V:2
 x6 | x6 |] x2 x c2 A | EA x4 | x6 | x6 | x6 | x6 | x6 | x6 | x6 | x6 | x6 | x6 | x6 | x6 | x6 | %17
w: ||mir *|||||||||||||||
w: ||sel'- ge|||||||||||||||
 x6 | x6 | x6 | x6 | x6 | x6 | x6 | x6 | x6 | x6 | x6 | x6 | x6 | x6 | x6 | x6 | x6 | x6 | x6 | %36
w: |||||||||||||||||||
w: |||||||||||||||||||
 x6 | x6 | x6 | x6 | x6 | x6 |] %42
w: ||||||
w: ||||||
V:3
!p! (c/e/a/b/c'/b/!ped! a/e/c/A/E/A/ | c/e/a/b/c'/b/ a/e/c/A/E/A/) |] c/e/a/b/c'/b/ a/e/c/A/E/A/ | %3
 c/e/a/b/c'/b/ a/e/c/A/E/A/!ped-up! |!ped! ^A/c/e/^a/c'/b/ a/e/c/A/F/A/!ped-up! | %5
!ped! B/d/f/b/d'/c'/ b/f/d/B/F/^A/!ped-up! |!ped! B/d/f/b/d'/c'/ b/f/d/B/F/!ped-up!^A/ | %7
!ped! B/d/f/b/d'/c'/ b/f/d/B/F/D/!ped-up! |!ped! C/E/A/c/e/a/ c'/b/a/e/c/A/!ped-up! | %9
!ped! G/B/e/g/b/a/ g/e/B/G/E/!ped-up!F/ |!ped! G/B/e/g/b/a/ g/e/B/G/E/!ped-up!D/ | %11
!ped! =C/E/A/=c/e/a/ =c'/b/a/e/c/A/!ped-up! |!ped! G/B/e/g/b/a/ g/e/B/G/E/B,/!ped-up! | %13
 [=C=F][CE][CF] [B,FA]2 [B,E=G] | [B,D=F]3 [=CE]2 [DE] | %15
!ped! [=C=c]/e/a/b/=c'/b/ a/e/c/A/E/A/!ped-up! |!ped! G/B/e/g/b/a/ g/e/B/G/E/B,/!ped-up! | %17
 [E^A][EA][EA] [Ee]2 [EA] | [FB]3 [E^B]2!p! =D |!ped! [Cc]/e/a/b/c'/b/ a/e/c/A/E/A/!ped-up! | %20
!ped! c/e/a/b/c'/b/ a/e/c/A/E/A/!ped-up! |!ped! ^A/c/e/^a/c'/b/ a/e/c/A/F/A/!ped-up! | %22
!ped! B/d/f/b/d'/c'/ b/f/d/B/F/!ped-up!^A/ |!ped! B/d/f/b/d'/c'/ b/f/d/B/F/!ped-up!^A/ | %24
!ped! B/d/f/b/d'/c'/ b/f/d/B/F/D/!ped-up! |!ped! C/E/A/c/e/a/ c'/b/a/e/c/A/!ped-up! | %26
!ped! G/B/e/g/b/a/ g/e/B/G/E/B,/!ped-up! | z/ c/f/a/c'/^d'/ e'/c'/g/e/c/G/ | %28
 z/ A/d/f/a/b/ c'/a/e/c/A/E/ |!ped! =C/!<(!F/A/=c/f/a/!<)! =c'/a/f/c/A/F/ | %30
!p! =C/F/A/=c/f/a/ =c'/a/f/c/A/F/!ped-up! |!ped! B,/E/G/B/e/g/ b/g/e/B/G/E/!ped-up! | %32
 C/E/A/c/e/a/ d'/b/f/d/B/F/ | E/B,/E/G/B/e/ g/b/g/e/B/G/ | E/B,/E/G/B/e/ z/ C/E/A/c/e/ | %35
 [Dd]3 [Ec]3 | [FB]3 z2 [B,FA] | [B,DG]2 [B,DG] [B,DG]2 [B,DG] | %38
 [CAc]/!ped!e/a/b/c'/b/ a/e/c/A/E/D/!ped-up! | C/!ped!E/A/B/c/B/ A/E/C/A,/ z!ped-up! | %40
!p! z2!ped!"_dim." [EA] [EAc]2 [EAce]!ped-up! |!pp! [Ecea]6!ped!!ped-up! |] %42
V:4
 A,,E,A, [CE]3 |"^sempre legato" A,,E,A, [CE]3 |] A,,E,A, [CE]3 | A,,E,A, [CE=G]3 | %4
 F,,F,^A, [CF]3 | B,,"^e simile"F,B, [DF]3 | B,,D,F, [DF]3 | G,,G,B, [DF]3 | A,,E,A, [CE]3 | %9
 E,,E,G, [B,E]3 | E,,E,G, [B,E]3 | E,,E,A, [=CE]3 | E,,E,G, [B,E]3 | %13
 [D,A,][D,A,][D,A,] [=G,,=G,]2 [G,,G,] | [=C,=G,]3- [C,G,]2 [B,,E,^G,] | [A,,E,A,]E,A, [=CE]3 | %16
 E,,E,G, [B,E]3 | [E,=G,C][E,G,C][E,G,C] [E,G,C]2 [E,G,C] | [^D,F,B,]2 A, [E,G,]3 | %19
 [A,,E,A,]E,A, [CE]3 | =G,,E,A, [CE]3 | F,,F,^A, [CF]3 | B,,F,B, [DF]3 | B,,F,B, [DF]3 | %24
 G,,G,B, [DF]3 | A,,E,A, [CE]3 | E,,E,G, [B,E]3 | %27
"^leggiero" !arpeggio![F,CFA]2 z !arpeggio![C,G,CE]2 z | %28
 !arpeggio![D,A,DF]2 z !arpeggio![A,,E,A,C]2 z | A,,F,A, [=C^DFA]3 | A,,F,A, [=C^DFA]3 | %31
 G,,E,G, [B,E]3 | [A,,A,]2 z [D,,F,]2 z | [E,,E,]2 G, [E,B,]DC | B,3 A,2 [=G,A,] | %35
 [F,A,]3 [E,A,]3 | [^D,A,B,]3 z2 [^D,,^D,] | [E,,E,]2 [E,,E,] [E,,E,]2 [E,,E,] | A,,E,A, [CE]3 | %39
 A,,E,A, [CE]2 E,/D,/ | C,/E,/A,/B,/C/B,/ A,/E,/C,/B,,/A,,/E,,/ | A,,,6 |] %42
V:5
 x6 | x6 |] x6 | x6 | x6 | x6 | x6 | x6 | x6 | x6 | x6 | x6 | x6 | x6 | x6 | x6 | x6 | x6 | x6 | %19
 x6 | x6 | x6 | x6 | x6 | x6 | x6 | x6 | x6 | x6 | x6 | x6 | x6 | x6 | x6 | A,,6 | x6 | x6 | x6 | %38
 x6 | x6 | x6 | x6 |] %42

